images_elementary_svg/cmd/sc_distributerows.svg

<svg viewBox="0 0 16 16" xmlns="http://www.w3.org/2000/svg" xmlns:xlink="http://www.w3.org/1999/xlink"><linearGradient id="a" gradientTransform="matrix(.59436 0 0 .5999 -19.265 -.033)" gradientUnits="userSpaceOnUse" x1="25.132" x2="25.132" y1="15.5" y2="48.396"><stop offset="0" stop-color="#fafafa"/><stop offset="1" stop-color="#e2e1de"/></linearGradient><linearGradient id="b" gradientUnits="userSpaceOnUse" x1="10.476" x2="23.695" y1="3.225" y2="3.225"><stop offset="0" stop-color="#cd9ef7"/><stop offset="1" stop-color="#a56de2"/></linearGradient><linearGradient id="c" gradientTransform="matrix(0 -.5372 .57682 0 -15.997 19.866)" gradientUnits="userSpaceOnUse" x1="30.782" x2="31.082" y1="47.444" y2="66.576"><stop offset="0" stop-color="#fff"/><stop offset=".21" stop-color="#fff" stop-opacity=".235"/><stop offset=".859" stop-color="#fff" stop-opacity=".157"/><stop offset="1" stop-color="#fff" stop-opacity=".392"/></linearGradient><rect fill="url(#a)" height="3" rx=".424" ry=".491" width="14.004" x="1" y="6"/><path d="m.502 5.002c-.276 0-.5.224-.5.5v3.996c0 .276.224.5.5.5h15c.276 0 .5-.224.5-.5.002-5.004 0 1.003 0-3.996 0-.276-.224-.5-.5-.5zm.498.998h4v3h-4zm5 0h4v3h-4v-1h.002v-1.998h-.002zm5 0h4l.004 3h-4.004v-1h.002v-1.998h-.002zm4.002 0h.002c0 1.167 0 .583-.002 0z" opacity=".32"/><g transform="translate(0 -4)"><rect fill="url(#a)" height="2" rx=".424" ry=".491" width="14" x="1" y="6"/><path d="m.502 5.002c-.276 0-.5.224-.5.5v2.498h.998v-2h4v2h1.002v-1.998h-.002v-.002h4v2h1.002v-1.998h-.002v-.002h4l.002 2h1v-2.498c0-.276-.224-.5-.5-.5zm14.5.998h.002c0 1.167 0 .583-.002 0z" opacity=".32"/></g><path d="m16.685 9.236 7.01-6.12-7.034-5.9v3.644l-6.183-.012.022 4.652 6.185.014z" display="block" fill="url(#b)" transform="matrix(0 .64678 .64678 0 8.94 -.31)"/><g fill="none" stroke-miterlimit="7"><path d="m14.914 10.513-3.974 4.987-3.802-5.004h2.36l-.01-4 3.01.016.01 4z" display="block" stroke="#7239b3" stroke-linejoin="round" stroke-opacity=".875"/><path d="m17.685 7.126 5.145-4.036-5.17-3.8v2.574l-6.184-.014.024 2.65 6.185.014z" display="block" stroke="url(#c)" stroke-width=".964" transform="matrix(0 .64678 .64678 0 8.94 -.31)"/></g></svg>

<svg xmlns="http://www.w3.org/2000/svg" xmlns:xlink="http://www.w3.org/1999/xlink" viewBox="0 0 16 16"><defs><linearGradient gradientTransform="matrix(1.38317 0 0 1.41442 -36.243 -3.873)" id="b" gradientUnits="userSpaceOnUse" x1="8.295" x2="8.295" y1="-4.284" y2="16.85"><stop offset="0" stop-color="#cdf87e"/><stop offset=".262" stop-color="#a2e34f"/><stop offset=".661" stop-color="#68b723"/><stop offset="1" stop-color="#1d7e0d"/></linearGradient><linearGradient id="c" gradientTransform="matrix(.59436 0 0 .5999 -19.265 -.033)" gradientUnits="userSpaceOnUse" x1="25.132" x2="25.132" y1="15.5" y2="48.396"><stop offset="0" stop-color="#fafafa"/><stop offset="1" stop-color="#e2e1de"/></linearGradient><linearGradient id="a"><stop offset="0" stop-color="#fff"/><stop offset=".5" stop-color="#fff" stop-opacity=".235"/><stop offset=".951" stop-color="#fff" stop-opacity=".157"/><stop offset="1" stop-color="#fff" stop-opacity=".392"/></linearGradient><linearGradient xlink:href="#c" id="f" gradientUnits="userSpaceOnUse" gradientTransform="matrix(.59436 0 0 .5999 -19.265 -.033)" x1="25.132" y1="15.5" x2="25.132" y2="48.396"/><linearGradient xlink:href="#d" id="g" x1="10.476" y1="3.225" x2="23.695" y2="3.225" gradientUnits="userSpaceOnUse"/><linearGradient id="d"><stop offset="0" stop-color="#cd9ef7"/><stop offset="1" stop-color="#a56de2"/></linearGradient><linearGradient id="h" gradientTransform="matrix(0 -.5372 .57682 0 -15.997 19.866)" gradientUnits="userSpaceOnUse" x1="30.782" x2="31.082" y1="47.444" y2="66.576"><stop offset="0" stop-color="#fff"/><stop offset=".21" stop-color="#fff" stop-opacity=".235"/><stop offset=".859" stop-color="#fff" stop-opacity=".157"/><stop offset="1" stop-color="#fff" stop-opacity=".392"/></linearGradient><linearGradient xlink:href="#c" id="e" gradientUnits="userSpaceOnUse" gradientTransform="matrix(.59436 0 0 .5999 -19.265 -.033)" x1="25.132" y1="15.5" x2="25.132" y2="48.396"/></defs><rect height="3" rx=".424" ry=".491" width="14.004" x="1" y="6" fill="url(#e)"/><path d="M.502 5.002c-.276 0-.5.224-.5.5v3.996c0 .276.224.5.5.5h15c.276 0 .5-.224.5-.5.002-5.004 0 1.003 0-3.996 0-.276-.224-.5-.5-.5zM1 6h4v3H1zm5 0h4v3H6V8h.002V6.002H6zm5 0h4l.004 3H11V8h.002V6.002H11zm4.002 0h.002c0 1.167 0 .583-.002 0z" opacity=".32"/><g transform="translate(0 -4)"><rect y="6" x="1" width="14" ry=".491" rx=".424" height="2" fill="url(#f)"/><path d="M.502 5.002c-.276 0-.5.224-.5.5V8H1V6h4v2h1.002V6.002H6V6h4v2h1.002V6.002H11V6h4l.002 2h1V5.502c0-.276-.224-.5-.5-.5zm14.5.998h.002c0 1.167 0 .583-.002 0z" opacity=".32"/></g><g><path d="M16.685 9.236l7.01-6.12-7.034-5.9V.86L10.478.848 10.5 5.5l6.185.014z" display="block" transform="matrix(0 .64678 .64678 0 8.94 -.31)" fill="url(#g)"/><path d="M14.914 10.513L10.94 15.5l-3.802-5.004h2.36l-.01-4 3.01.016.01 4z" display="block" stroke-miterlimit="7" fill="none" stroke="#7239b3" stroke-linejoin="round" stroke-opacity=".875"/><path d="M17.685 7.126L22.83 3.09l-5.17-3.8v2.574l-6.184-.014.024 2.65 6.185.014z" display="block" stroke-miterlimit="7" transform="matrix(0 .64678 .64678 0 8.94 -.31)" fill="none" stroke="url(#h)" stroke-width=".964"/></g></svg>
